X:273
T:Cook in The Kitchen, The
S:sessions
R:Jig
O:Ireland
M:6/8
K:G
DGG GAG|=FDE F2E|DGG GFG|A2d cAG|\
DGG GAG|=FDE F2d|cAG FGA|BGF G3::
B2B BAG|ABA AGF|G2G GFG|A2d cAG|\
BcB BAG|ABA A2d|cAG FGA|BGF G3::
d2e f2g|a2g fed|cAG FGA|BdB cAG|\
d2e f2g|a2g fed|cAG FGA|BGF G3:|
